packages/symbols/svgs/solid/eye-solid.svg

<svg width="16" height="16" viewBox="0 0 16 16" fill="none" xmlns="http://www.w3.org/2000/svg">
<path d="M8.00002 14C11.6 14 14.4 10.9 15.6 9.1C16.1 8.4 16.1 7.5 15.6 6.8C14.4 5.1 11.6 2 8.00002 2C4.40002 2 1.60002 5.1 0.400024 6.9C-0.0999756 7.6 -0.0999756 8.5 0.400024 9.1C1.60002 10.9 4.40002 14 8.00002 14ZM8.00002 5C9.70002 5 11 6.3 11 8C11 9.7 9.70002 11 8.00002 11C6.30002 11 5.00002 9.7 5.00002 8C5.00002 6.3 6.30002 5 8.00002 5Z" fill="black"/>
</svg>

<svg width="16" height="16" viewBox="0 0 16 16" xmlns="http://www.w3.org/2000/svg"><path d="M8 14c3.6 0 6.4-3.1 7.6-4.9.5-.7.5-1.6 0-2.3C14.4 5.1 11.6 2 8 2 4.4 2 1.6 5.1.4 6.9c-.5.7-.5 1.6 0 2.2C1.6 10.9 4.4 14 8 14Zm0-9c1.7 0 3 1.3 3 3s-1.3 3-3 3-3-1.3-3-3 1.3-3 3-3Z"/></svg>
